X: 324
T: I98 Sher
M: 2/4
L: 1/8
K: Gmin
|: c B2 A/B/|c G2 G|G/A/B/c/ d/e/d/c/|d2 c/B/A/G/|c B2 A/B/|c G2 G|
G/A/B/c/ d/e/d/c/|B/c/A/B/ G z:: z fed|cccz|zFBd|fc fc|
cd/c/ BA| G4 :: d4| d4| d2 d2|d2 d2| d/e/d/c/ Bc|dBFB|
d/e/d/c/ Bc| dBFB|d/e/d/c/ Bd|fc fc|cd/c/ BA| G4:|



